X: 30920
T: Over The Moor To Maggie
R: reel
M: 4/4
K: Gmajor
"G"DEGA B2 d2|edgd edBA|"Am"E(A A)B AGED|EGAB "D"A2 (D2|
"G"D)EGA Bdef|gfga gedB|"C"ABGA "Am"BGAG|1 "D"E(G G)A "G"G4:|2 "D"E(G G)A"G"G2||
|:ga|"G"b2 bg "D"a2 af|"C"gage "G"dB A2|"Am"e(a a)(a a)b ag|(3efg ab "D"a2 g|
"G"b2 bg "D"a2 af|"C"gage "G"dB A2|"C"ABGA "Am"BGAG|"D"E(G G)A "G"G2:|

